X: 39
T:Captain Courageous
M:4/4
L:1/16
C:Nigel Eaton
R:Schottische
Z:Steve Mansfield
K:Eb
ecde c2Bc | cagf gede | e2de cBcA | GBcA GAAG | ecde c2Bc |
cagf gede | e2de cBcA | GBcA GAAG ::[K:C] gefg e3f | gefg e2de |
fdec B3c | dBc2 B2AG | gefg e3f | gefg e2ag | d2db babg | egc'2 c'4 :|
<end>
<start>
